build/assets/img/about-us/tags.svg

<svg width="46" height="38" viewBox="0 0 46 38" fill="none" xmlns="http://www.w3.org/2000/svg">
<path fill-rule="evenodd" clip-rule="evenodd" d="M0.5 2.93206C0.5 1.59858 1.58049 0.517578 2.91334 0.517578H43.1192C44.452 0.517578 45.5325 1.59858 45.5325 2.93206V35.4386C45.5325 36.7721 44.452 37.8531 43.1192 37.8531H2.91334C1.58049 37.8531 0.5 36.7721 0.5 35.4386V2.93206ZM2.91334 1.83457C2.3075 1.83457 1.81637 2.32593 1.81637 2.93206V35.4386C1.81637 36.0448 2.3075 36.5361 2.91334 36.5361H43.1192C43.725 36.5361 44.2161 36.0448 44.2161 35.4386V2.93206C44.2161 2.32593 43.725 1.83457 43.1192 1.83457H2.91334Z" fill="#274684"/>
<path d="M45.0391 6.58676C45.0391 6.67255 35.2159 6.74119 23.1039 6.74119C10.992 6.74119 1.16016 6.67255 1.16016 6.58676C1.16016 6.50097 10.9834 6.44092 23.1039 6.44092C35.2244 6.44092 45.0391 6.50955 45.0391 6.58676Z" fill="#274684"/>
<path fill-rule="evenodd" clip-rule="evenodd" d="M34.1674 19.6955L29.4082 14.9341L30.339 14.0028L35.0982 18.7642C36.0407 19.7071 36.0407 21.2359 35.0982 22.1788L30.339 26.9402L29.4082 26.009L34.1674 21.2476C34.5958 20.819 34.5958 20.1241 34.1674 19.6955Z" fill="#274684"/>
<path fill-rule="evenodd" clip-rule="evenodd" d="M11.4361 19.6955L16.1953 14.9341L15.2645 14.0028L10.5053 18.7642C9.56286 19.7071 9.56286 21.2359 10.5053 22.1788L15.2645 26.9402L16.1953 26.009L11.4361 21.2476C11.0078 20.819 11.0078 20.1241 11.4361 19.6955Z" fill="#274684"/>
<path fill-rule="evenodd" clip-rule="evenodd" d="M18.9727 29.2413L25.8301 11.2321L27.0602 11.7009L20.2028 29.7102L18.9727 29.2413Z" fill="#274684"/>
<path d="M6.57946 4.62598C6.90166 4.62598 7.16284 4.3648 7.16284 4.04261C7.16284 3.72042 6.90166 3.45923 6.57946 3.45923C6.25727 3.45923 5.99609 3.72042 5.99609 4.04261C5.99609 4.3648 6.25727 4.62598 6.57946 4.62598Z" fill="#0A3D76"/>
<path d="M8.10876 4.62598C8.43095 4.62598 8.69213 4.3648 8.69213 4.04261C8.69213 3.72042 8.43095 3.45923 8.10876 3.45923C7.78657 3.45923 7.52539 3.72042 7.52539 4.04261C7.52539 4.3648 7.78657 4.62598 8.10876 4.62598Z" fill="#0A3D76"/>
<path d="M4.92517 4.62598C5.24736 4.62598 5.50854 4.3648 5.50854 4.04261C5.50854 3.72042 5.24736 3.45923 4.92517 3.45923C4.60298 3.45923 4.3418 3.72042 4.3418 4.04261C4.3418 4.3648 4.60298 4.62598 4.92517 4.62598Z" fill="#0A3D76"/>
</svg>

<svg width="46" height="38" fill="none" xmlns="http://www.w3.org/2000/svg"><path fill-rule="evenodd" clip-rule="evenodd" d="M.5 2.932A2.414 2.414 0 012.913.518H43.12a2.414 2.414 0 012.413 2.414V35.44a2.414 2.414 0 01-2.413 2.414H2.913A2.414 2.414 0 01.5 35.44V2.932zm2.413-1.097c-.605 0-1.097.49-1.097 1.097V35.44c0 .606.492 1.097 1.097 1.097H43.12c.606 0 1.097-.491 1.097-1.097V2.932c0-.606-.491-1.097-1.097-1.097H2.913z" fill="#274684"/><path d="M45.04 6.587c0 .086-9.824.154-21.936.154S1.16 6.673 1.16 6.587s9.823-.146 21.944-.146c12.12 0 21.935.069 21.935.146z" fill="#274684"/><path fill-rule="evenodd" clip-rule="evenodd" d="M34.167 19.695l-4.759-4.76.931-.932 4.76 4.761a2.415 2.415 0 010 3.415l-4.76 4.761-.93-.931 4.758-4.761a1.098 1.098 0 000-1.553zm-22.731 0l4.76-4.76-.932-.932-4.759 4.761a2.415 2.415 0 000 3.415l4.76 4.761.93-.931-4.759-4.761a1.098 1.098 0 010-1.553zm7.537 9.546l6.857-18.009 1.23.469-6.857 18.01-1.23-.47z" fill="#274684"/><path d="M6.58 4.626a.583.583 0 100-1.167.583.583 0 000 1.167zm1.529 0a.583.583 0 100-1.167.583.583 0 000 1.167zm-3.184 0a.583.583 0 100-1.167.583.583 0 000 1.167z" fill="#0A3D76"/></svg>
